X: 1636
T: Sabâ Mehter
C: Zurnazen Daği Ahmet Çelebi
O: Turkey
F: http://compmusic.upf.edu/node/140
N: saba--mehter--hafif----zurnazen_dagi_ahmet_celebi
N: makam= saba
N: form= mehter
N: usul= hafif = 32/4
M: 32/4
L: 1/16
K: C _2/4B _3/4d  
Q: 1/4=156
%%MIDI tuningsystem comma53
d2 c4 B2 B2 A6  | G2 A4 B2 c2 B2 c4  | \
w:  SERHÂNE  |   | 
d2 c4 B2 B2 A2 G4  | B2 A2 G2 B2 A8  | 
w:   |   | 
c2 d2 e2 f2 e2 d2 c2 B2  | A2 G2 A2 B2 c8  | \
w:  MÜLÂZİME  |   | 
c2 d2 e2 f2 e2 d2 c2 B2  | 
w:   | 
c2 d2 c2 B2 A8  | c2 d2 e2 f2 e2 d2 c2 B2  | \
w:   |  MÜLÂZİME  | 
A2 G2 A2 B2 c8  | c2 d2 e2 f2 e2 d2 c2 B2  | 
w:   |   | 
c2 d2 c2 B2 A8  | G8 c2 B2 c2 =d2  | \
w:   |   | 
A6 B2 A2 G2 A2 ^F2  | G8 c2 B2 A2 G2  | 
w:   |   | 
B2 A2 G2 B2 A8  | A2 f4 g2 a2 g2 a4  | \
w:   |  HÂNE-İ SÂNİ  | 
=d2 f4 g2 a2 g2 a4  | e2 f2 g2 a2 a2 f2 g2 f2  | 
w:   |   | 
e2 f2 e2 d2 e8  | c2 d2 e2 f2 e2 d2 c2 B2  | \
w:   |  MÜLÂZİME  | 
A2 G2 A2 B2 c8  | c2 d2 e2 f2 e2 d2 c2 B2  | 
w:   |   | 
c2 d2 c2 B2 A8  | c2 d2 e2 f2 e2 d2 c2 B2  | \
w:   |  MÜLÂZİME  | 
A2 G2 A2 B2 c8  | c2 d2 e2 f2 e2 d2 c2 B2  | 
w:   |   | 
c2 d2 c2 B2 A8  | G8 c2 B2 c2 =d2  | \
w:   |   | 
A6 B2 A2 G2 A2 ^F2  | G8 c2 B2 A2 G2  | 
w:   |   | 
B2 A2 G2 B2 A8  | =d2 c4 B2 B2 A6  | \
w:   |  HÂNE-İ SÂLİS  | 
A2 B4 c2 d2 c2 d4  | d2 c4 B2 B2 A2 G4  | 
w:   |   | 
B2 A2 G2 B2 A8  | c2 d2 e2 f2 e2 d2 c2 B2  | \
w:   |  MÜLÂZİME  | 
A2 G2 A2 B2 c8  | c2 d2 e2 f2 e2 d2 c2 B2  | 
w:   |   | 
c2 d2 c2 B2 A8  | c2 d2 e2 f2 e2 d2 c2 B2  | \
w:   |  MÜLÂZİME  | 
A2 G2 A2 B2 c8  | c2 d2 e2 f2 e2 d2 c2 B2  | 
w:   |   | 
c2 d2 c2 B2 A8  | G8 c2 B2 c2 =d2  | \
w:   |   | 
A6 B2 A2 G2 A2 ^F2  | G8 c2 B2 A2 G2  | 
w:   |   | 
B2 A2 G2 B2 A8  | |


